X:136
T:Little girl down the lane - Fone
%%VWML:SBG-1-2-828-0
F:http://www.vwml.org/record/SBG/1/2/828
Z:Original Sibelius transcriptions by M. & S. Graebe
M:3/4
I:linebreak $
K:Ab
V:1 treble nm="P1"
V:1
 F/G/ | A c c | G B A | _E F F/G/ | A c c | A B G | F2 :| c/_d/ | e c c/B/ | A B A |$ %10
 G/B/ c c/=d/ | e c c | !turn!B A B | =c2 c/d/ | e c B | A B G |$ =E/F/ F G/G/ | A c c | A B G | %19
 F2 !fermata!c3/2 B/ | A G F | C F =E | F3 | %23

